newicons/flashcards.svg

<?xml version="1.0" encoding="UTF-8" standalone="no"?>
<svg
   viewBox="0 0 48 48"
   version="1.1"
   id="svg1"
   sodipodi:docname="flashcards.svg"
   inkscape:version="1.3.2 (091e20ef0f, 2023-11-25)"
   xml:space="preserve"
   xmlns:inkscape="http://www.inkscape.org/namespaces/inkscape"
   xmlns:sodipodi="http://sodipodi.sourceforge.net/DTD/sodipodi-0.dtd"
   xmlns="http://www.w3.org/2000/svg"
   xmlns:svg="http://www.w3.org/2000/svg"><sodipodi:namedview
     id="namedview1"
     pagecolor="#505050"
     bordercolor="#eeeeee"
     borderopacity="1"
     inkscape:showpageshadow="0"
     inkscape:pageopacity="0"
     inkscape:pagecheckerboard="0"
     inkscape:deskcolor="#505050"
     inkscape:zoom="12.59534"
     inkscape:cx="2.0245584"
     inkscape:cy="28.065937"
     inkscape:window-width="1918"
     inkscape:window-height="1053"
     inkscape:window-x="0"
     inkscape:window-y="0"
     inkscape:window-maximized="1"
     inkscape:current-layer="svg1" /><defs
     id="defs1"><style
       id="style1">.a { fill:none;stroke:#fff;stroke-linecap:round;stroke-linejoin:round; }
</style></defs><g
     id="g66"><g
       id="g65"><path
         style="fill:none;stroke:#ffffff;stroke-width:1;stroke-linecap:round;stroke-linejoin:round;stroke-opacity:1"
         d="m 14.241966,7.5602797 h 19.516069 c 1.471675,0 2.656453,1.1852036 2.656453,2.6574053 v 27.564632 c 0,1.472201 -1.184778,2.657403 -2.656453,2.657403 H 14.241966 c -1.471675,0 -2.656452,-1.185202 -2.656452,-2.657403 V 10.217685 c 0,-1.4722017 1.184777,-2.6574053 2.656452,-2.6574053 z"
         id="path64" /><g
         id="g64"><path
           style="fill:none;stroke:#ffffff;stroke-width:1;stroke-linecap:round;stroke-linejoin:round;stroke-opacity:1"
           d="M 15.349672,16.885096 H 33.053114"
           id="path63" /><path
           style="fill:none;stroke:#ffffff;stroke-width:1;stroke-linecap:round;stroke-linejoin:round;stroke-opacity:1"
           d="M 15.349672,20.31221 H 33.053114"
           id="path62" /><path
           style="fill:none;stroke:#ffffff;stroke-width:1;stroke-linecap:round;stroke-linejoin:round;stroke-opacity:1"
           d="M 15.349672,23.739322 H 33.053114"
           id="path61" /><path
           style="fill:none;stroke:#ffffff;stroke-width:1;stroke-linecap:round;stroke-linejoin:round;stroke-opacity:1"
           d="M 15.349672,27.166434 H 33.053114"
           id="path60" /><path
           style="fill:none;stroke:#ffffff;stroke-width:1;stroke-linecap:round;stroke-linejoin:round;stroke-opacity:1"
           d="m 15.349672,13.457984 h 7.097375"
           id="path59" /><path
           style="fill:none;stroke:#ffffff;stroke-width:1;stroke-linecap:round;stroke-linejoin:round;stroke-opacity:1"
           d="m 15.349672,30.593547 h 7.097375"
           id="path58" /><path
           style="fill:none;stroke:#ffffff;stroke-width:1;stroke-linecap:round;stroke-linejoin:round;stroke-opacity:1"
           d="M 15.349672,34.020659 H 33.053114"
           id="path57" /></g><path
         style="fill:none;stroke:#ffffff;stroke-width:1;stroke-linecap:round;stroke-linejoin:round;stroke-opacity:1"
         d="m 11.584037,37.736387 24.832029,10e-7"
         id="path56" /><path
         style="fill:none;stroke:#ffffff;stroke-width:1;stroke-linecap:round;stroke-linejoin:round;stroke-opacity:1"
         d="m 19.858233,37.736319 1e-6,2.702861"
         id="path55" /><path
         style="fill:none;stroke:#ffffff;stroke-width:1;stroke-linecap:round;stroke-linejoin:round;stroke-opacity:1"
         d="m 28.141867,37.736319 10e-7,2.702861"
         id="path54" /></g><path
       style="fill:none;stroke:#ffffff;stroke-width:1;stroke-linecap:round;stroke-linejoin:round;stroke-opacity:1"
       d="M 11.56807,36.838612 5.5908115,14.523182 C 5.2099144,13.101145 6.04768,11.649573 7.4692069,11.26854 v 0 L 11.57008,10.169319"
       id="path53" /><path
       style="fill:none;stroke:#ffffff;stroke-width:1;stroke-linecap:round;stroke-linejoin:round;stroke-opacity:1"
       d="m 36.431932,36.838612 5.977257,-22.31543 c 0.380897,-1.422036 -0.45687,-2.873609 -1.878396,-3.254642 v 0 L 36.42992,10.169319"
       id="path27" /></g></svg>

<?xml version="1.0" encoding="UTF-8"?><svg id="a" xmlns="http://www.w3.org/2000/svg" viewBox="0 0 48 48"><defs><style>.r{fill:none;stroke:#fff;stroke-linecap:round;stroke-linejoin:round;}</style></defs><g id="b"><g id="c"><path id="d" class="r" d="M14.2425,7.5612h19.5149c1.4716,0,2.6563,1.1851,2.6563,2.6573v27.5631c0,1.4721-1.1847,2.6572-2.6563,2.6572H14.2425c-1.4716,0-2.6563-1.1851-2.6563-2.6572V10.2185c0-1.4721,1.1847-2.6573,2.6563-2.6573Z"/><g id="e"><path id="f" class="r" d="M15.3502,16.8855h17.7024"/><path id="g" class="r" d="M15.3502,20.3124h17.7024"/><path id="h" class="r" d="M15.3502,23.7393h17.7024"/><path id="i" class="r" d="M15.3502,27.1663h17.7024"/><path id="j" class="r" d="M15.3502,13.4586h7.097"/><path id="k" class="r" d="M15.3502,30.5932h7.097"/><path id="l" class="r" d="M15.3502,34.0201h17.7024"/></g><path id="m" class="r" d="M11.5847,37.7356h24.8306"/><path id="n" class="r" d="M19.8585,37.7355v2.7027"/><path id="o" class="r" d="M28.1416,37.7355v2.7027"/></g><path id="p" class="r" d="M11.5688,36.8379L5.5919,14.5237c-.3809-1.422.4568-2.8734,1.8783-3.2545h0l4.1006-1.0992"/><path id="q" class="r" d="M36.4312,36.8379l5.9769-22.3142c.3809-1.422-.4568-2.8734-1.8783-3.2545h0l-4.1006-1.0992"/></g></svg>
